icons/unsplash-line.svg

<svg viewBox="0 0 24 24" fill="currentColor" xmlns="http://www.w3.org/2000/svg"><path d="M10.001 10V14H14.0002L14.0012 10H21.0012L21.0002 14L21.001 21H3.00098V10H10.001ZM8.00098 12H5.00098V19H19.001V16L19.0007 12H16.0007L15.9997 16H8.00098V12ZM16.001 3V9H8.00098V3H16.001ZM14.001 5H10.001V7H14.001V5Z"/></svg>

<svg xmlns="http://www.w3.org/2000/svg" viewBox="0 0 24 24">
    <g>
        <path fill="none" d="M0 0H24V24H0z"/>
        <path d="M10 10v4h4v-4h7v11H3V10h7zm-2 2H5v7h14v-7h-3l-.001 4H8v-4zm8-9v6H8V3h8zm-2 2h-4v2h4V5z"/>
    </g>
</svg>
